X:211
T: Osterjubel
N: A0564B
O: Europa, Mitteleuropa, Deutschland
N: Mainzer Cantual 1605.
R: Romanze, Ballade, Lied, religioeses Lied
M: 3/2
L: 1/2
K: F
F | F2A | c2d | cAB | c2
f | ede | f2c | c2B | A2
F | GAB | AGF | EDE | F2

